packages/vapor/resources/icons/svg/hamburger.svg

<svg viewBox="0 0 20 20"><path d="m1 2.8h18c.6 0 1 .4 1 1v.5c0 .6-.4 1-1 1h-18c-.6 0-1-.4-1-1v-.5c0-.6.4-1 1-1z"/><path d="m1 8.8h18c.6 0 1 .4 1 1v.5c0 .6-.4 1-1 1h-18c-.6 0-1-.4-1-1v-.5c0-.6.4-1 1-1z"/><path d="m1 14.8h18c.6 0 1 .4 1 1v.5c0 .6-.4 1-1 1h-18c-.6 0-1-.4-1-1v-.5c0-.6.4-1 1-1z"/></svg>

<?xml version="1.0" encoding="utf-8"?>
<svg viewBox="0 0 20 20" xml:space="preserve">
    <g>
        <path d="M1,2.8h18c0.6,0,1,0.4,1,1v0.5c0,0.6-0.4,1-1,1H1c-0.6,0-1-0.4-1-1V3.8C0,3.2,0.4,2.8,1,2.8z"/>
        <path id="Rectangle-2_1_" d="M1,8.8h18c0.6,0,1,0.4,1,1v0.5c0,0.6-0.4,1-1,1H1c-0.6,0-1-0.4-1-1V9.8C0,9.2,0.4,8.8,1,8.8z" class="st0"/>
        <path d="M1,14.8h18c0.6,0,1,0.4,1,1v0.5c0,0.6-0.4,1-1,1H1c-0.6,0-1-0.4-1-1v-0.5C0,15.2,0.4,14.8,1,14.8z"/>
    </g>
</svg>
